X:1
T:67th Psalm, 10.10.10.10
T:67th Psalm, 10.10.10.10
T:Scottish Psalter, 1615
T:Public Domain Courtesy of the Cyber Hymnal™
C:Scottish Psalter, 1615
Z:Public Domain
Z:Courtesy of the Cyber Hymnal™
%%score ( 1 2 ) ( 3 4 )
L:1/8
M:none
K:G
V:1 treble 
V:2 treble 
V:3 bass 
V:4 bass 
V:1
 D4 | G4 [FA]2 [FA]2 | [GB]4 [FA]4 | [GB]4 [Gc]2 [Gc]2 | [Fd]4 c4 | B4 [FA]2 [^CG]2 | [DF]4 G4 | %7
 [Ec]2 [Ec]2 A4 | [B,G]4 D4 | [DG]2 [B,G]2 F4 | E4 [A,D]4 | [DG]4 [EA]2 [FA]2 | [DB]4 [EG]4 | %13
 [Gd]2 c2 B4 | [FA]4 G4 | [Ac]2 [Gc]2 [FA]4 | !fermata!G4 |] %17
V:2
 D4 | (D2 E2) x4 | x8 | x8 | x4 (E2 D2) | D2 E2 x4 | x4 G4 | x4 (D2 C2) | x4 D4 | x4 (C2 D2) | %10
 (C2 B,2) x4 | x8 | x8 | x2 (FE) (D2 E2) | x4 G4 | x8 | G4 |] %17
V:3
 D4 | D4 [B,,C]2 [A,,C]2 | D4 [D,D]4 | D4 [E,G,]2 [E,G,]2 | [D,A,]4 ([E,G,]2 [F,A,]2) | %5
 (B,2 ^C2) [F,D]2 [E,G,]2 | A,4 [B,,G,]4 | [A,,A,]2 [A,,A,]2 [D,F,]4 | [G,,G,]4 F,4 | %9
 [B,,G,]2 [G,,B,]2 A,4 | [C,G,]4 [C,F,]4 | ([G,D]2 [A,,C]2) [A,,C]2 [A,,C]2 | [G,,B,]4 [E,B,]4 | %13
 [B,,B,]2 [A,,C]2 ([B,,D]2 [C,G,]2) | (D2 C2) [E,B,]4 | [A,,E]2 [A,,E]2 (D2 C2) | %16
 !fermata![G,,B,]2 x2 |] %17
V:4
 (D,2 C,2) | (B,,2 C,2) x4 | (G,,2 B,,2) x4 | (G,2 F,2) x4 | x8 | G,4 x4 | (D,2 C,2) x4 | x8 | %8
 x4 (D,2 C,2) | x4 (A,,2 B,,2) | x8 | B,,4 x4 | x8 | x8 | D,4 x4 | x4 D,4 | x4 |] %17

